X:1
T:Colby, CMD
T:William Howard Doane, 1876
T:Colby, CMD
T:Public Domain
C:William Howard Doane, 1876
Z:Public Domain
%%score ( 1 2 ) 3
L:1/8
M:3/4
K:Eb
V:1 treble 
V:2 treble 
V:3 bass 
V:1
 [GB][FA] [EG] | [DF]3 [FA] [EG][DF] | E4 [EB]2 | [EB]3 [DB] [EB][EG] | [DF]3 [GB] [FA][EG] | %5
 [DF]3 [FA] [EG][DF] | E4 [EG]2 | [DF]3 [DF] [E=A][Ec] | [DB]3 [GB] [EG][GB] | %9
 [Ge]3 [Ed] [Ed][Ec] | [Ec]4 [Ec]2 | [EB]3 [Ec] [EB][EG] | [DF]3 [DF] [EG][GB] | %13
 [Ge]3 [Bd] [Bd][Ac] | [Ac]4 [Ac]2 | [GB]3 [GB] [EG][DF] | E3 |] %17
V:2
 x3 | x6 | E4 x2 | x6 | x6 | x6 | E4 x2 | x6 | x6 | x6 | x6 | x6 | x6 | x6 | x6 | x6 | E3 |] %17
V:3
 [E,B,][E,B,] [E,B,] | [B,,B,]3 [B,,B,] [B,,B,][B,,A,] | [E,G,]4 [E,G,]2 | %3
 [E,G,]3 [F,A,] [G,B,][E,B,] | [B,,B,]3 [B,,B,] [D,B,][E,B,] | [B,,B,]3 [D,B,] [E,B,][F,B,] | %6
 [G,B,]4 [E,B,]2 | [F,B,]3 [F,B,] [F,C][F,=A,] | [B,,B,]3 [E,B,] [E,B,][E,B,] | %9
 [E,B,]3 [G,B,] [A,C][A,C] | [A,C]4 [A,,A,]2 | [E,G,]3 [E,A,] [E,G,][E,B,] | %12
 [B,,B,]3 [B,,B,] [E,B,][E,B,] | [E,B,]3 [G,E] [A,E][A,E] | [A,E]4 [A,,E]2 | %15
 [B,,E]3 [B,,E] [B,,B,][B,,A,] | [E,G,]3 |] %17

